X: 634
T:O'Carolan's Receipt for Drinking
M:2/4
L:1/16
B:O'Neill's 634
N:"With spirit."
Z:Transcribed by Ted Hastings, ted@hastings.nu
K:G
gf|edcB cBAG|E2GA G2gf|edBc cBcd|e2AB A2Bc|
dBde d2Bd|egfa g2fg|edcB cBAG|f2ga G2||
Bc|dBde dBAG|EFGA G2Bc|dBde ed2Bd|egfa g2 z2|
G2B2 A2c2|BABd e2f2|gfed BABd|egfa g2ga|
babg afae|gfgd edcB|cBcd efgf|edgB A2ge|
dcBA G2ge|dBAG E2GA|BAGE AGED|E2GA G2||
